icon-themes/breeze_svg/cmd/32/matchgroup.svg

<svg viewBox="0 0 32 32" xmlns="http://www.w3.org/2000/svg"><path d="m9.2050781 4c-1.77683 0-2.5214843.7063656-2.5214843 2.5097656v2.4414063c0 .0161-.0019532.0327281-.0019532.0488281h.0019532v3.951172c0 1.1138-.0341951 2.404297-1.015625 2.404297h-.5078126v1.289062h.5078126c.9814799 0 1.015625 1.290497 1.015625 2.404297v3.951172h-.0019532c.00002.0162.0019532.032728.0019532.048828v2.441406c0 1.8034.7446543 2.509766 2.5214843 2.509766v-1.183594c-1.18455 0-1.2011719-.478337-1.2011719-2.210937v-1.605469h.0078126c-.001-.13832-.0078126-2.235741-.0078126-2.394531v-2.015625c0-.8309-.2047049-2.067378-1.203125-2.580078.9984201-.5127 1.203125-1.751032 1.203125-2.582032v-2.033203c0-.15879.0068126-2.256211.0078126-2.394531h-.0078126v-1.6054688c.0002701-1.7326.0165519-2.2109374 1.2011719-2.2109374zm13.6347659 0v1.1835938c1.18457 0 1.201172.4783374 1.201172 2.2109374v1.6054688h-.007813c.001.13832.007813 2.235741.007813 2.394531v2.033203c0 .831.204705 2.069332 1.203125 2.582032-.99842.5127-1.203125 1.749178-1.203125 2.580078v2.015625c0 .1588-.006813 2.256211-.007813 2.394531h.007813v1.605469c0 1.7326-.016622 2.210937-1.201172 2.210937v1.183594c1.77683 0 2.521484-.706366 2.521484-2.509766v-2.441406c0-.0161.001933-.032628.001953-.048828h-.001953v-3.951172c0-1.1138.034145-2.404297 1.015625-2.404297h.507813v-1.289062h-.507813c-.98143 0-1.015625-1.290497-1.015625-2.404297v-3.951172h.001953c0-.0161-.001953-.0327281-.001953-.0488281v-2.4414063c0-1.8034-.744654-2.5097656-2.521484-2.5097656zm-6.839844 8v3h-6v2h6v3l6-4z" fill="#4d4d4d"/></svg>

<svg xmlns="http://www.w3.org/2000/svg" viewBox="0 0 32 32">
 <path 
     style="fill:#4d4d4d" 
     d="M 9.2050781 4 C 7.4282481 4 6.6835938 4.7063656 6.6835938 6.5097656 L 6.6835938 8.9511719 C 6.6835938 8.9672719 6.6816406 8.9839 6.6816406 9 L 6.6835938 9 L 6.6835938 12.951172 C 6.6835938 14.064972 6.6493987 15.355469 5.6679688 15.355469 L 5.1601562 15.355469 L 5.1601562 16.644531 L 5.6679688 16.644531 C 6.6494487 16.644531 6.6835938 17.935028 6.6835938 19.048828 L 6.6835938 23 L 6.6816406 23 C 6.6816606 23.0162 6.6835938 23.032728 6.6835938 23.048828 L 6.6835938 25.490234 C 6.6835938 27.293634 7.4282481 28 9.2050781 28 L 9.2050781 26.816406 C 8.0205281 26.816406 8.0039062 26.338069 8.0039062 24.605469 L 8.0039062 23 L 8.0117188 23 C 8.0107188 22.86168 8.0039062 20.764259 8.0039062 20.605469 L 8.0039062 18.589844 C 8.0039062 17.758944 7.7992013 16.522466 6.8007812 16.009766 C 7.7992013 15.497066 8.0039062 14.258734 8.0039062 13.427734 L 8.0039062 11.394531 C 8.0039062 11.235741 8.0107188 9.13832 8.0117188 9 L 8.0039062 9 L 8.0039062 7.3945312 C 8.0041763 5.6619312 8.0204581 5.1835938 9.2050781 5.1835938 L 9.2050781 4 z M 22.839844 4 L 22.839844 5.1835938 C 24.024414 5.1835938 24.041016 5.6619312 24.041016 7.3945312 L 24.041016 9 L 24.033203 9 C 24.034203 9.13832 24.041016 11.235741 24.041016 11.394531 L 24.041016 13.427734 C 24.041016 14.258734 24.245721 15.497066 25.244141 16.009766 C 24.245721 16.522466 24.041016 17.758944 24.041016 18.589844 L 24.041016 20.605469 C 24.041016 20.764269 24.034203 22.86168 24.033203 23 L 24.041016 23 L 24.041016 24.605469 C 24.041016 26.338069 24.024394 26.816406 22.839844 26.816406 L 22.839844 28 C 24.616674 28 25.361328 27.293634 25.361328 25.490234 L 25.361328 23.048828 C 25.361328 23.032728 25.363261 23.0162 25.363281 23 L 25.361328 23 L 25.361328 19.048828 C 25.361328 17.935028 25.395473 16.644531 26.376953 16.644531 L 26.884766 16.644531 L 26.884766 15.355469 L 26.376953 15.355469 C 25.395523 15.355469 25.361328 14.064972 25.361328 12.951172 L 25.361328 9 L 25.363281 9 C 25.363281 8.9839 25.361328 8.9672719 25.361328 8.9511719 L 25.361328 6.5097656 C 25.361328 4.7063656 24.616674 4 22.839844 4 z M 16 12 L 16 15 L 10 15 L 10 17 L 16 17 L 16 20 L 22 16 L 16 12 z "
     />
</svg>
